svg/azuracast.svg

<svg xmlns="http://www.w3.org/2000/svg" xml:space="preserve" style="fill-rule:evenodd;clip-rule:evenodd;stroke-linejoin:round;stroke-miterlimit:2" viewBox="0 0 300 300"><path d="m170.355 9.693 121.3 70.032V219.79l-121.3 70.032L49.056 219.79V79.725L170.355 9.693Z" style="fill:#0b1b64" transform="translate(-20.513 -.05) scale(1.00519)"/><g transform="translate(-28.803 -13.716) scale(1.00386)"><path d="m179.564 37.803 108.708 62.762V226.09l-108.708 62.763L70.856 226.09V100.565l108.708-62.762Z" style="fill:#0b1b64"/><clipPath id="a"><path d="m179.564 37.803 108.708 62.762V226.09l-108.708 62.763L70.856 226.09V100.565l108.708-62.762Z"/></clipPath><g clip-path="url(#a)"><path d="M10.152-3.232h298.667v318.053H10.152z" style="fill:url(#b)" transform="translate(24.257 24.526) scale(.99615)"/><path d="M130.072 27.675h65.09v18.554h-65.09z" style="fill:#1f8df5" transform="rotate(-14.109 280.376 -55.06) scale(.99615)"/><path d="M130.072 27.675h65.09v18.554h-65.09z" style="fill:#1f8df5" transform="rotate(-43.46 195.474 176.708) scale(.99615)"/><path d="M-882.7 1008.9c-4.8-2.7-10.4-4.3-16.3-4.3s-11.5 1.6-16.3 4.3c-3.3 1.9-4 6.5-1.4 9.3l.4.4c1.9 2 4.9 2.6 7.3 1.3 3-1.7 6.4-2.7 10.1-2.7 3.7 0 7.1 1 10.1 2.7 2.4 1.4 5.4.8 7.3-1.3l.4-.4c2.5-2.8 1.8-7.4-1.6-9.3Z" style="fill:#1f8df5;fill-rule:nonzero" transform="rotate(-30 -5680.885 -3328.83) scale(2.5986)"/><path d="M-867.8 993.3c-8.8-6.2-19.6-9.8-31.2-9.8-11.6 0-22.3 3.6-31.2 9.8-3 2.1-3.5 6.3-1 9l.3.4c2.1 2.3 5.5 2.7 8 .9 6.8-4.7 15-7.5 23.9-7.5 8.9 0 17.1 2.8 23.8 7.5 2.5 1.8 5.9 1.4 8-.9l.3-.4c2.5-2.6 2-6.9-.9-9Z" style="fill:#1f8df5;fill-rule:nonzero" transform="rotate(-30 -5680.885 -3328.83) scale(2.5986)"/><path d="M-853.4 977.7c-12.7-9.6-28.5-15.3-45.6-15.3s-32.9 5.7-45.6 15.3c-2.8 2.2-3.3 6.3-.9 8.9l.4.4c2.1 2.4 5.7 2.6 8.2.7 10.5-8 23.7-12.7 37.9-12.7s27.3 4.7 37.9 12.7c2.5 1.9 6.1 1.7 8.2-.7l.4-.4c2.3-2.6 1.9-6.7-.9-8.9Z" style="fill:#1f8df5;fill-rule:nonzero" transform="rotate(-30 -5680.885 -3328.83) scale(2.5986)"/></g></g><path d="M95.9 29.9c-1-.8-2.3-1-3.5-.7l-25.6 6.5c-1.8.5-3.1 2.1-3.1 3.9V70c-1.4-.6-3-.9-4.8-.9-5.5 0-9.8 3.4-9.8 7.6 0 4.2 4.3 7.6 9.8 7.6 5.5 0 9.8-3.4 9.8-7.6V48.3l23.6-6v20.3c-1.4-.6-3-.9-4.8-.9-5.5 0-9.8 3.4-9.8 7.6 0 4.2 4.3 7.6 9.8 7.6 5.5 0 9.8-3.4 9.8-7.6V33.1c.2-1.3-.4-2.5-1.4-3.2Z" style="fill:#0b1b64;fill-rule:nonzero" transform="translate(-160.672 -94.206) scale(4.21541)"/><defs><linearGradient id="b" x1="0" x2="1" y1="0" y2="0" gradientTransform="rotate(-90.068 210.085 55.338) scale(250.69618)" gradientUnits="userSpaceOnUse"><stop offset="0" style="stop-color:#236be9;stop-opacity:1"/><stop offset="1" style="stop-color:#236be9;stop-opacity:1"/></linearGradient></defs></svg>

<?xml version="1.0" encoding="UTF-8" standalone="no"?>
<!DOCTYPE svg PUBLIC "-//W3C//DTD SVG 1.1//EN" "http://www.w3.org/Graphics/SVG/1.1/DTD/svg11.dtd">
<svg width="100%" height="100%" viewBox="0 0 300 300" version="1.1" xmlns="http://www.w3.org/2000/svg" xmlns:xlink="http://www.w3.org/1999/xlink" xml:space="preserve" xmlns:serif="http://www.serif.com/" style="fill-rule:evenodd;clip-rule:evenodd;stroke-linejoin:round;stroke-miterlimit:2;">
    <g transform="matrix(1.00519,0,0,1.00519,-20.5126,-0.05031)">
        <path d="M170.355,9.693L291.655,79.725L291.655,219.79L170.355,289.822L49.056,219.79L49.056,79.725L170.355,9.693Z" style="fill:rgb(11,27,100);"/>
    </g>
    <g transform="matrix(1.00386,0,0,1.00386,-28.8032,-13.7162)">
        <path d="M179.564,37.803L288.272,100.565L288.272,226.09L179.564,288.853L70.856,226.09L70.856,100.565L179.564,37.803Z" style="fill:rgb(11,27,100);"/>
        <clipPath id="_clip1">
            <path d="M179.564,37.803L288.272,100.565L288.272,226.09L179.564,288.853L70.856,226.09L70.856,100.565L179.564,37.803Z"/>
        </clipPath>
        <g clip-path="url(#_clip1)">
            <g transform="matrix(0.996154,0,0,0.996154,24.2572,24.5262)">
                <rect x="10.152" y="-3.232" width="298.667" height="318.053" style="fill:url(#_Linear2);"/>
            </g>
            <g transform="matrix(0.966105,-0.242823,0.242823,0.966105,21.879,66.6834)">
                <rect x="130.072" y="27.675" width="65.09" height="18.554" style="fill:rgb(31,141,245);"/>
            </g>
            <g transform="matrix(0.723065,-0.6852,0.6852,0.723065,-67.9601,182.9)">
                <rect x="130.072" y="27.675" width="65.09" height="18.554" style="fill:rgb(31,141,245);"/>
            </g>
            <g transform="matrix(2.25046,-1.2993,1.2993,2.25046,903.322,-3286.42)">
                <path d="M-882.7,1008.9C-887.5,1006.2 -893.1,1004.6 -899,1004.6C-904.9,1004.6 -910.5,1006.2 -915.3,1008.9C-918.6,1010.8 -919.3,1015.4 -916.7,1018.2L-916.3,1018.6C-914.4,1020.6 -911.4,1021.2 -909,1019.9C-906,1018.2 -902.6,1017.2 -898.9,1017.2C-895.2,1017.2 -891.8,1018.2 -888.8,1019.9C-886.4,1021.3 -883.4,1020.7 -881.5,1018.6L-881.1,1018.2C-878.6,1015.4 -879.3,1010.8 -882.7,1008.9Z" style="fill:rgb(31,141,245);fill-rule:nonzero;"/>
                <path d="M-867.8,993.3C-876.6,987.1 -887.4,983.5 -899,983.5C-910.6,983.5 -921.3,987.1 -930.2,993.3C-933.2,995.4 -933.7,999.6 -931.2,1002.3L-930.9,1002.7C-928.8,1005 -925.4,1005.4 -922.9,1003.6C-916.1,998.9 -907.9,996.1 -899,996.1C-890.1,996.1 -881.9,998.9 -875.2,1003.6C-872.7,1005.4 -869.3,1005 -867.2,1002.7L-866.9,1002.3C-864.4,999.7 -864.9,995.4 -867.8,993.3Z" style="fill:rgb(31,141,245);fill-rule:nonzero;"/>
                <path d="M-853.4,977.7C-866.1,968.1 -881.9,962.4 -899,962.4C-916.1,962.4 -931.9,968.1 -944.6,977.7C-947.4,979.9 -947.9,984 -945.5,986.6L-945.1,987C-943,989.4 -939.4,989.6 -936.9,987.7C-926.4,979.7 -913.2,975 -899,975C-884.8,975 -871.7,979.7 -861.1,987.7C-858.6,989.6 -855,989.4 -852.9,987L-852.5,986.6C-850.2,984 -850.6,979.9 -853.4,977.7Z" style="fill:rgb(31,141,245);fill-rule:nonzero;"/>
            </g>
        </g>
    </g>
    <g transform="matrix(4.21541,1.11022e-15,-1.11022e-15,4.21541,-160.672,-94.2064)">
        <path d="M95.9,29.9C94.9,29.1 93.6,28.9 92.4,29.2L66.8,35.7C65,36.2 63.7,37.8 63.7,39.6L63.7,70C62.3,69.4 60.7,69.1 58.9,69.1C53.4,69.1 49.1,72.5 49.1,76.7C49.1,80.9 53.4,84.3 58.9,84.3C64.4,84.3 68.7,80.9 68.7,76.7L68.7,48.3L92.3,42.3L92.3,62.6C90.9,62 89.3,61.7 87.5,61.7C82,61.7 77.7,65.1 77.7,69.3C77.7,73.5 82,76.9 87.5,76.9C93,76.9 97.3,73.5 97.3,69.3L97.3,33.1C97.5,31.8 96.9,30.6 95.9,29.9Z" style="fill:rgb(11,27,100);fill-rule:nonzero;"/>
    </g>
    <defs>
        <linearGradient id="_Linear2" x1="0" y1="0" x2="1" y2="0" gradientUnits="userSpaceOnUse" gradientTransform="matrix(-0.29703,-250.696,250.696,-0.29703,154.961,265.538)"><stop offset="0" style="stop-color:rgb(35,107,233);stop-opacity:1"/><stop offset="1" style="stop-color:rgb(35,107,233);stop-opacity:1"/></linearGradient>
    </defs>
</svg>
